X:1
T:Castle Newe
C:Alexander Walker
M:C
L:1/8
R:Strathspey
B:Walker - Collection of Strathspeys, Reels, Marches &c.
B:(1866, p. 2)
Z:AK/Fiddler's Companion
F: http://digital.nls.uk/special-collections-of-printed-music/archive/105875136?mode=zoom
K:A
d|c>BA>F E<A, C2|B,<BB>A B>FF<B|c>BA>F E<A, C2|
E>FA>B c<AA:|e|d/c/B/A/ e>A f>Ae>A|d>Bc>A B>AE>e|
d/c/B/A/ e>A f>Ae>A|E>FA>B c<AA>g|a/g/f/e/ d>f e<A ~c2|
d>(Bc>)A B>(AF>)B|(3ABc (3Bcd (3cdf ~e2|E>FA>B c<AA||

